X:21128 
T:MCCARTHY'S (hornpipe) 
B:DMI.0831
Z:Nordberg/Black
R:hornpipe
%Q:1/4=150
M:C|
L:1/8
K:A
E2|A2Ac ecAc|d2fd ecAc|d2fd c2ec|BAGA BdcB|
A2Ac ecAc|dcdf edcB|Aagf edcB|A2A2 A2:|
fg|aece fece|Aece fece|defd cdec|BAGA BdcB|
A2Ac ecAc|dcdf edcB|Aagf edcB|A2A2 A2:|

%%%

